icon_installer/data/icons/scalable/actions/show-phonelink2-off-symbolic.svg

<?xml version="1.0" encoding="UTF-8"?>
<svg height="16px" viewBox="0 0 16 16" width="16px" xmlns="http://www.w3.org/2000/svg">
    <g fill="#222222">
        <path d="m 4 2 c -0.800781 0 -1.519531 0.476562 -1.835938 1.210938 l 1.835938 1.839843 v -1.050781 h 9 v 2 h 2 v -2 c 0 -1.105469 -0.894531 -2 -2 -2 z m -2 3.167969 v 5.832031 h -2 c 0 1.105469 0.894531 2 2 2 h 7.832031 l -2 -2 h -3.832031 v -3.832031 z m 7.953125 5.832031 l 1.046875 1.046875 v -1.046875 z m 0 0"/>
        <path d="m 12 7 c -0.550781 0 -1 0.449219 -1 1 v 4.046875 l 1.953125 1.953125 h 2.046875 c 0.550781 0 1 -0.449219 1 -1 v -5 c 0 -0.550781 -0.449219 -1 -1 -1 z m 0 1 h 3 v 4 h -3 z m 0 0"/>
        <path d="m 1.53125 0.457031 l -1.0625 1.0625 l 14 14 l 1.0625 -1.0625 z m 0 0"/>
    </g>
</svg>

<svg xmlns="http://www.w3.org/2000/svg" width="16" height="16"><g fill="#222"><path d="M4 2a2 2 0 0 0-1.836 1.21L4 5.05V4h9v2h2V4a2 2 0 0 0-2-2zM2 5.168V11H0a2 2 0 0 0 2 2h7.832l-2-2H4V7.168zM9.953 11 11 12.047V11zM12 7c-.55 0-1 .45-1 1v4.047L12.953 14H15c.55 0 1-.45 1-1V8c0-.55-.45-1-1-1zm0 1h3v4h-3zm0 0"/><path d="M1.531.457.47 1.52l14 14 1.062-1.063zm0 0"/></g></svg>
